img/logo-quizheroes.svg

<svg width="160" height="88" viewBox="0 0 160 88" fill="none" xmlns="http://www.w3.org/2000/svg">
<mask id="mask0_74_8581" style="mask-type:alpha" maskUnits="userSpaceOnUse" x="71" y="39" width="64" height="13">
<path d="M71.2793 39.2144H134.966V51.9472H71.2793V39.2144Z" fill="white"/>
</mask>
<g mask="url(#mask0_74_8581)">
<path fill-rule="evenodd" clip-rule="evenodd" d="M129.377 42.3164C129.377 40.9979 130.593 40.2227 131.94 40.2227C132.833 40.2248 133.694 40.5561 134.357 41.1532L134.733 40.5876C133.967 39.9249 132.984 39.5665 131.971 39.5804C130.129 39.5804 128.676 40.6669 128.676 42.3733C128.676 45.7369 134.263 44.9789 134.263 48.0319C134.263 49.3356 133.218 50.1741 131.783 50.1741C130.705 50.1544 129.676 49.7205 128.91 48.9624L128.457 49.475C129.342 50.3393 130.529 50.8236 131.766 50.8247C133.76 50.8247 134.967 49.5849 134.967 47.9552C134.964 44.3928 129.377 45.1828 129.377 42.2966V42.3158V42.3164ZM119.818 45.4512H124.172V44.8121H119.818V40.3582H125.125V39.7389H119.145V50.5959H125.411V49.976H119.819V45.4512H119.818ZM110.093 39.2263C106.911 39.188 104.3 41.7208 104.261 44.8837C104.26 44.9476 104.261 45.0115 104.262 45.0754C104.248 46.5069 104.735 47.8983 105.64 49.0078C105.603 49.5696 105.445 50.1169 105.178 50.6124C104.911 51.108 104.54 51.5403 104.091 51.8799C106.759 52.2672 108.217 50.8727 108.288 50.8049C108.872 50.9923 109.481 51.0876 110.093 51.0874C113.408 51.0874 115.928 48.4505 115.928 45.0779C116.004 41.9157 113.486 39.2922 110.304 39.2161C110.233 39.2147 110.162 39.2145 110.091 39.2155L110.093 39.2263ZM97.9573 45.1687H94.9989V40.3582H97.4959C98.3701 40.3582 98.7146 40.4374 99.0252 40.5761C99.4225 40.7585 99.7565 41.055 99.9847 41.4279C100.213 41.8007 100.325 42.2331 100.307 42.6698C100.298 44.1442 99.3927 45.1687 97.9573 45.1687ZM98.8118 45.6947V45.6634C100.093 45.3809 100.999 44.2203 100.999 42.6698C101.024 42.1358 100.894 41.606 100.625 41.1439C100.357 40.6817 99.9604 40.3069 99.4841 40.0642C99.045 39.8469 98.5331 39.7383 97.5157 39.7383H94.3189V50.5953H94.9995V45.7848H98.1318L100.723 50.5947H101.52L99.0687 46.0673C98.9977 45.9343 98.9129 45.8092 98.8156 45.694H98.8124L98.8118 45.6947ZM85.1433 45.4314H89.4975V44.8114H85.1408V40.3588H90.4434V39.7389H84.4633V50.5959H90.7278V49.976H85.1414L85.144 45.432L85.1433 45.4314ZM78.8795 44.8434H71.9484V39.7491H71.2793V50.5947H71.9484V45.4627H78.8795V50.5947H79.5512V39.7389H78.8795V44.8428V44.8434Z" fill="white"/>
</g>
<mask id="mask1_74_8581" style="mask-type:alpha" maskUnits="userSpaceOnUse" x="25" y="39" width="42" height="15">
<path d="M25.0391 39.5288H66.0802V53.9137H25.0391V39.5288Z" fill="white"/>
</mask>
<g mask="url(#mask1_74_8581)">
<path fill-rule="evenodd" clip-rule="evenodd" d="M38.1464 50.7278C37.7226 50.7278 37.3162 50.8961 37.0166 51.1957C36.717 51.4954 36.5486 51.9018 36.5486 52.3255C36.55 52.5354 36.5926 52.743 36.6742 52.9364C36.7558 53.1298 36.8746 53.3053 37.024 53.4528C37.1734 53.6003 37.3503 53.7169 37.5448 53.7959C37.7392 53.875 37.9473 53.915 38.1572 53.9137C38.5808 53.9137 38.987 53.7455 39.2866 53.4462C39.5862 53.1468 39.7547 52.7407 39.755 52.3172C39.7535 51.8942 39.5841 51.4891 39.284 51.1909C38.9839 50.8928 38.5777 50.7259 38.1547 50.7271H38.1464V50.7278ZM61.7522 48.3452C61.4665 48.3433 61.1815 48.3599 60.8977 48.3931V48.3625C61.2173 48.0621 61.503 47.7285 61.7522 47.3693L66.0233 41.3618V39.7129H57.6946V42.0047H61.7401C62.0258 42.006 62.3114 41.9906 62.5952 41.9593V41.99C62.2746 42.2887 61.988 42.622 61.7407 42.9838L57.4977 48.9562V50.637H66.0809V48.3452H61.7522ZM51.7145 50.6364H54.4051V39.7129H51.7145V50.6364ZM45.7581 46.6184C45.7581 47.7643 45.0059 48.3759 43.8523 48.3759C42.6993 48.3759 41.9446 47.7643 41.9446 46.6184V39.7122H39.2539V46.619C39.2539 49.0808 41.0677 50.8204 43.867 50.8204C46.6662 50.8204 48.4513 49.0808 48.4513 46.619V39.7122H45.7574V46.619L45.7581 46.6184ZM35.4494 48.3439C36.1455 47.4074 36.5282 46.275 36.5429 45.1082C36.5429 41.9734 34.1884 39.5288 30.791 39.5288C27.3941 39.5288 25.0391 41.9734 25.0391 45.1082C25.0391 47.2364 26.0667 49.0693 27.7552 50.0375C29.0737 48.1107 27.8607 49.879 29.1932 47.9061C28.7508 47.59 28.394 47.1687 28.155 46.6802C27.916 46.1918 27.8024 45.6515 27.8243 45.1082C27.8243 43.32 29.0545 41.9734 30.7916 41.9734C32.4833 41.9734 33.759 43.32 33.759 45.1082C33.7614 45.5943 33.6644 46.0758 33.4739 46.5231L32.3811 45.4705L30.8741 47.168L31.9906 48.133C33.8158 49.8305 32.1248 48.2519 33.9584 49.9212L35.0972 50.9738L36.6183 49.2757L35.45 48.3452L35.4494 48.3439Z" fill="white"/>
</g>
</svg>

<svg width="160" height="88" fill="none" xmlns="http://www.w3.org/2000/svg"><mask id="a" style="mask-type:alpha" maskUnits="userSpaceOnUse" x="71" y="39" width="64" height="13"><path d="M71.28 39.214h63.686v12.733H71.279V39.214Z" fill="#fff"/></mask><g mask="url(#a)"><path fill-rule="evenodd" clip-rule="evenodd" d="M129.377 42.316c0-1.318 1.216-2.093 2.563-2.093a3.625 3.625 0 0 1 2.417.93l.376-.565a4.135 4.135 0 0 0-2.762-1.008c-1.842 0-3.295 1.087-3.295 2.793 0 3.364 5.587 2.606 5.587 5.659 0 1.304-1.045 2.142-2.48 2.142a4.193 4.193 0 0 1-2.873-1.212l-.453.513a4.741 4.741 0 0 0 3.309 1.35c1.994 0 3.201-1.24 3.201-2.87-.003-3.562-5.59-2.772-5.59-5.658v.019Zm-9.559 3.135h4.354v-.639h-4.354v-4.454h5.307v-.62h-5.98v10.858h6.266v-.62h-5.592v-4.525h-.001Zm-9.725-6.225c-3.182-.038-5.793 2.495-5.832 5.658-.001.064 0 .127.001.191a6.126 6.126 0 0 0 1.378 3.933 3.928 3.928 0 0 1-1.549 2.872c2.668.387 4.126-1.007 4.197-1.075a5.901 5.901 0 0 0 1.805.282c3.315 0 5.835-2.637 5.835-6.01.076-3.161-2.442-5.785-5.624-5.86a6.302 6.302 0 0 0-.213-.002l.002.011ZM97.957 45.17H95v-4.81h2.497c.874 0 1.219.078 1.53.217a2.202 2.202 0 0 1 1.281 2.094c-.009 1.474-.914 2.499-2.35 2.499Zm.855.526v-.032c1.281-.282 2.187-1.443 2.187-2.993a2.775 2.775 0 0 0-1.515-2.606c-.439-.217-.95-.326-1.968-.326h-3.197v10.857h.68v-4.81h3.133l2.591 4.81h.797l-2.451-4.528a2.141 2.141 0 0 0-.253-.373h-.004Zm-13.669-.264h4.355v-.62H85.14V40.36h5.302v-.62h-5.98v10.857h6.265v-.62H85.14l.003-4.544Zm-6.264-.588h-6.93V39.75h-.67v10.846h.67v-5.132h6.93v5.132h.672V39.739h-.672v5.104Z" fill="#fff"/></g><mask id="b" style="mask-type:alpha" maskUnits="userSpaceOnUse" x="25" y="39" width="42" height="15"><path d="M25.04 39.529h41.04v14.385H25.04V39.529Z" fill="#fff"/></mask><g mask="url(#b)"><path fill-rule="evenodd" clip-rule="evenodd" d="M38.146 50.728a1.598 1.598 0 0 0-1.597 1.597 1.599 1.599 0 0 0 1.608 1.589 1.598 1.598 0 0 0 1.598-1.597 1.596 1.596 0 0 0-1.6-1.59h-.009Zm23.606-2.383a6.952 6.952 0 0 0-.854.048v-.03c.32-.3.605-.635.854-.994l4.271-6.007v-1.65h-8.328v2.293h4.045c.286.001.571-.014.855-.046v.031c-.32.299-.607.632-.854.994l-4.243 5.972v1.681h8.583v-2.292h-4.329Zm-10.038 2.291h2.691V39.713h-2.69v10.923Zm-5.956-4.018c0 1.146-.752 1.758-1.906 1.758-1.153 0-1.907-.612-1.907-1.758v-6.906h-2.691v6.907c0 2.462 1.814 4.201 4.613 4.201 2.8 0 4.584-1.74 4.584-4.201v-6.907h-2.694v6.907h.001ZM35.45 48.344a5.541 5.541 0 0 0 1.094-3.236c0-3.135-2.355-5.58-5.752-5.58s-5.752 2.445-5.752 5.58c0 2.128 1.028 3.961 2.716 4.93 1.319-1.927.106-.159 1.438-2.132a3.276 3.276 0 0 1-1.369-2.798c0-1.788 1.23-3.135 2.968-3.135 1.691 0 2.967 1.347 2.967 3.135.002.486-.095.968-.285 1.415L32.38 45.47l-1.507 1.698 1.117.965c1.825 1.697.134.119 1.967 1.788l1.14 1.053 1.52-1.698-1.168-.93v-.002Z" fill="#fff"/></g></svg>
